X: 1556
T: Angry Peeler, The
R: jig
M: 6/8
K: Dmajor
|:e|f2 e d2 D|FAA BAF|ABd edB|efe efg|
f2 e d2 D|FAA BAF|AB/c/d edB|dec d2:|
|:e|fef a2 f|abf afe|d2 f edB|
[1 efe ece|fef a2 f|abf afe|d2 f edB|dec d2:|
[2 efe ecg|f2 e d2 D|FAA BAF|ABd edB|dec d2||

